X:1
T:Title
%%score 1 { 2 | 3 }
L:1/8
Q:1/4=93
M:4/4
K:G
V:1 treble nm="Grand Piano, Soprano"
V:2 treble nm="Choir Pad, The Summer Land, Crosbie"
V:3 bass 
V:1
 G[GA][GB][GB] [GB][GB][GB][Gd] | [B,G][CA][DB][GB] [Gd][Ac] [GB]2 | %2
w: By~Robert~Crosbie * * * * * * *||
 [GB][Fc][Gd][Gd] [Gd][Gd][Gd][GB] | [DG][GB][FA][FA] [GA]>[FA] [FA]2 | %4
w: ||
 G[FA][GB][GB] [GB][GB][GB][Gd] | G[DA][GB][GB] [Gd][Fc] [GB]2 | %6
w: ||
 [GB][Fc][Gd][Gd] [Gd][Ge][Gd][GB] | [EG][EA] [GB]>[GB] [GB][FA] [DG]2 | [Gd]3 [Gd] [GB][Gd][GB]G | %9
w: |||
 [Gc]8 | [Gd]3 [Gd] [GB]G[GB][Gd] | [FA]8 | [Gd]3 [Gd] [Gd][Gd][GB]G | [Ge]6 G[GA] | %14
w: |||||
 [GB] [GB]3 [Gd]2 [GB]2 | [FA]4 [DG]4- | [DG]4 z4 |] %17
w: |||
V:2
 B,CDD DDD[K:bass]B, | G,G,G,G, B,[K:treble]D D2 | DDDD DCB,D | DDDD ^C>C D2 | B,^CDD DDDB, | %5
 B,CDD DC D2 | DDDD DCB,D | CA, D>D DC[K:bass] B,2 | B,B,B,B,[K:treble] DB,DB, | E2 EE E E3 | %10
 B,B,B,B, DB,[K:treble]DD | DDDD DC[K:bass]B,A, | B,B,B,B, B,B,[K:treble]DB, | C2 C2 C2 EE | %14
 D D3[K:bass] B,2 D2 | C4 B,4- | B,4 z4 |] %17
V:3
 G,G,G,G, G,G,G,G, | z F, z2 D,D, G,2 | G,A,B,B, .B,2 G,G, | G,G,D,D, A,,>A,, D,2 | %4
 D,D,G,G, G,G,G,G, | G,F,G,G, B,A, G,2 | G,A,B,B, .B,2 G,G, | C,C, D,>D, D,D, G,2 | %8
 G,G,G,G, G,G,G,G, | C,2 C,E, G, C3 | G,G,G,G, G,G,G,B,, | D,D,F,A, z4 | G,G,G,G, G,G,G,G, | %13
 z4 z2 CC | z4 D,2 D,2 | D,4 G,4- | G,4 z4 |] %17

